X:1
T:Title
%%score { ( 1 3 ) | ( 2 4 ) }
L:1/8
M:6/8
K:G
V:1 treble nm="Grand Piano"
V:3 treble 
V:2 bass 
V:4 bass 
V:1
 z3 z2[Q:1/4=84] B | [GBe][Bd][GB] BcB | [DB]3 z3 | [CA]DD cB_B | [DB]3- [DB] z d | %5
 [GBe][Bd][GB] BcB | [DB]3 z3 | [CA]DD cBA | [B,G]3- [B,G] z B | [FA]FA [Fd]ed | [G^c]3 [CE]2 G | %11
 [G^c]BA [CE]FA | [=FB]3 [^FA]2 [FA] | [FA]B^c [Fd]cd | d3 [B,E]2 [D=FB] | %15
 [DFB][DFA][DA] [^CA][CG]C | D3 c3 |[M:1/8] D |[M:3/4] G>F ED GB | [_Be]3 [=Bd]2 B | %20
 B>A G[DG] [DFA][DGB] |[M:5/8] [DFA]-[DFA]- [DFA]3 |[M:1/8] [DGB] | %23
[M:3/4] [CGc]>[CGc] [CGc][Gd] [Gd][Gd] | f2 e [Gd]2 c | B>c dc BA |[M:5/8] [B,G]-[B,G]- [B,G]3 |] %27
V:2
 z3 z2 G | G,,G[D,G,B,] [D,G,B,D]E[D,G,B,D] | .D,,2 D, .[D,F,C]2 [D,F,C] | %3
 D,,C[D,F,] [D,F,E]D[D,F,C] | G,D,B,, .G,,2[K:treble] B | G,,G[D,G,B,] [D,G,B,D]E[D,G,B,D] | %6
 .D,,2 D, .[D,F,C]2 [D,F,C] | D,,C[D,F,] [D,F,E]D[D,E,C] | G,D,B,, .G,,2[K:treble] G | z DF z FF | %10
 A,,C,E, A,2 E | z[K:treble] GG z DF | [D,^G,]3 .[D,A,]3 | z[K:treble] FF z FF | %14
 [G,B,E]3 [G,,G,]2 [^G,,^G,] | A,,A,,[A,,F,] [A,,E,][A,,E,][A,,G,A,] | A,3 z3 |[M:1/8] D, | %18
[M:3/4] G,>F, E,D, G,B, | [G,^C]3 [G,D]2 [G,DG] | [G,DG]>[G,CD][K:bass] [G,B,D]B,, A,,G,, | %21
[M:5/8] D,-D,- D,3 |[M:1/8] G, |[M:3/4] E,>E, E,[D,B,] [D,B,][D,B,] | [^C,_B,]3 [D,=B,]2 [D,A,D] | %25
 [D,G,D]>[D,A,D] [D,B,D][D,A,D] [D,G,D][D,F,C] |[M:5/8] [G,,G,]-[G,,G,]- [G,,G,]3 |] %27
V:3
 x6 | x6 | z2 F, A2 A | x6 | x6 | x6 | z2 F, A2 A | x6 | x6 | x6 | x6 | x6 | x6 | x6 | x6 | x6 | %16
 x6 |[M:1/8] x |[M:3/4] x6 | x6 | x6 |[M:5/8] x5 |[M:1/8] x |[M:3/4] x6 | G4 z2 | x6 |[M:5/8] x5 |] %27
V:4
 x6 | x6 | x6 | x6 | x5[K:treble] x | x6 | x6 | x6 | x5[K:treble] x | .D,3 .D,3 | x6 | %11
 .A,,3[K:treble] .A,3 | x6 | .[D,A,]3[K:treble] .[D,A,]3 | x6 | x6 | [D,F,]3- [D,F,D]3 |[M:1/8] x | %18
[M:3/4] x6 | x6 | x2[K:bass] x4 |[M:5/8] x5 |[M:1/8] x |[M:3/4] x6 | x6 | x6 |[M:5/8] x5 |] %27

